!!!COM: Corelli, Arcangelo
!!!OTL: Sonata da chiesa
!!!OPS: 1
!!!ONM: 6
!!!OMV: 4
!!!OMD: Allegro
**kern	**fb	**kern	**kern	**kern
*part4	*part4	*part3	*part2	*part1
*staff4	*	*staff3	*staff2	*staff1
*I"Organo	*	*I"Violone	*I"Violino II	*I"Violino I
*clefF4	*	*clefF4	*clefG2	*clefG2
*k[f#c#]	*	*k[f#c#]	*k[f#c#]	*k[f#c#]
*M6/8	*	*M6/8	*M6/8	*M6/8
=1	=1	=1	=1	=1
4.BB	.	2.r	2.r	4.b
4.AA#X	6	.	.	4.cc#
=	=	=	=	=
4.BB	.	2.r	2.r	8ddL
.	.	.	.	8cc#
.	.	.	.	8bJ
4.FF#	#	.	.	8a#XL
.	.	.	.	8ff#
.	.	.	.	8eeJ
=	=	=	=	=
4.BB	.	2.r	4.r	8ddL
.	.	.	.	8cc#
.	.	.	.	8bJ
[4.FF#	n	.	4.f#	4.a
=	=	=	=	=
4.FF#]	4 #2	2.r	4.g#X	4.b
4.FF#	5	.	8aL	8cc#L
.	.	.	8g#	8b
.	.	.	8f#J	8aJ
=	=	=	=	=
4.C#	#	2.r	8e#XL	4.g#X
.	.	.	8cc#	.
.	.	.	8bJ	.
4.FF#	5	.	8aL	4.a
.	.	.	8g#X	.
.	.	.	8f#J	.
=	=	=	=	=
4.BB	5	4.BB	4.dd	4.ff#
4.C#	#6\	4.C#	4.cc#	4.ee
=	=	=	=	=
8DL	6	8DL	4.b	4.dd
8C#	.	8C#	.	.
8BBJ	.	8BBJ	.	.
8AA#XL	6	8AA#XL	4.cc#	4.cc#
8F#	.	8F#	.	.
8EJ	.	8EJ	.	.
=	=	=	=	=
8DL	6	8DL	4.dd	4.b
8C#	.	8C#	.	.
8BBJ	.	8BBJ	.	.
4.B	6	4.B	8r	[4.gg
.	.	.	8eeL	.
.	.	.	8ddJ	.
=	=	=	=	=
2.A	7	2.A	4.cc#	8ggL]
.	.	.	.	8aa
.	.	.	.	8ggJ
.	6	.	8r	[4.ff#
.	.	.	8ddL	.
.	.	.	8cc#J	.
=	=	=	=	=
2.G	7	2.G	4.b	8ff#L]
.	.	.	.	8gg
.	.	.	.	8ff#J
.	6	.	8r	8eeL
.	.	.	8bL	8dd
.	.	.	8cc#J	8eeJ
=	=	=	=	=
4.F#	#	4.F#	4.a#X	4.f#
4.E#X	6 #	4.r	4.r	4.g#X
=	=	=	=	=
4.F#	n	2.r	2.r	8aL
.	.	.	.	8g#X
.	.	.	.	8f#J
4.C#	#	.	.	8e#XL
.	.	.	.	8cc#
.	.	.	.	8bJ
=	=	=	=	=
4.F#	n	2.r	4.r	8aL
.	.	.	.	8g#X
.	.	.	.	8f#J
[4.BB	.	.	4.b	4.dd
=	=	=	=	=
4.BB]	4 2	2.r	4.cc#	4.ee
4.BB	5	.	8ddL	8ff#L
.	.	.	8cc#	8ee
.	.	.	8bJ	8ddJ
=	=	=	=	=
4.F#	#	2.r	8a#XL	4.cc#
.	.	.	8ff#	.
.	.	.	8eeJ	.
8BB	.	.	8ddL	4.dd
8r	.	.	8cc#	.
8r	.	.	8bJ	.
=	=	=	=	=
4.F#	.	4.F#	4.ff#	4.aa
4.G#X	#6\	4.G#X	4.ee#X	4.gg#X
=	=	=	=	=
8AL	.	8AL	4.ff#	4.ff#
8G#X	.	8G#X	.	.
8F#J	.	8F#J	.	.
8E#XL	6 #	8E#XL	4.gg#X	4.cc#
8c#	.	8c#	.	.
8BJ	.	8BJ	.	.
=	=	=	=	=
4.A	6	4.A	4.aa	8ff#L
.	.	.	.	8f#
.	.	.	.	8ff#J
4.C#	#6\	4.C#	4.aa#X	8eeL
.	.	.	.	8cc#
.	.	.	.	8eeJ
=	=	=	=	=
[4.BB	n	[4.BB	8bbL	4.dd
.	.	.	8b	.
.	.	.	8bbJ	.
4.BB]	7 #	4.BB]	8aaL	4.dd#X
.	.	.	8ff#	.
.	.	.	8aaJ	.
=	=	=	=	=
[4.E	-	[4.E	4.gg	8eeL
.	.	.	.	8e
.	.	.	.	8eeJ
4.E]	7 #	4.E]	4.gg#X	8ddL
.	.	.	.	8b
.	.	.	.	8ddJ
=	=	=	=	=
[4.AA	.	[4.AA	8aaL	4.cc#
.	.	.	8a	.
.	.	.	8aaJ	.
4.AA]	7	4.AA]	8ggL	4.cc#
.	.	.	8ee	.
.	.	.	8ggJ	.
=	=	=	=	=
[4.D	.	[4.D	4.ff#	8ddL
.	.	.	.	8d
.	.	.	.	8ddJ
4.D]	7	4.D]	4.ff#	8cc#L
.	.	.	.	8a
.	.	.	.	8cc#J
=	=	=	=	=
[4.GG	.	[4.GG	8ggL	4.b
.	.	.	8g	.
.	.	.	8ggJ	.
4.GG]	7	4.GG]	8ff#L	4.dd
.	.	.	8dd	.
.	.	.	8ff#J	.
=	=	=	=	=
4.AA	.	4.AA	4.ee	8cc#L
.	.	.	.	8b
.	.	.	.	8aJ
4.F#	.	4.F#	8r	[4.aa
.	.	.	8ff#L	.
.	.	.	8eeJ	.
=	=	=	=	=
4.BB	7	4.BB	8ddL	4.aa]
.	.	.	8cc#	.
.	.	.	8bJ	.
4.E	.	4.E	8r	[4.gg
.	.	.	8eeL	.
.	.	.	8ddJ	.
=	=	=	=	=
4.AA	7	4.AA	8cc#L	4.gg]
.	.	.	8b	.
.	.	.	8aJ	.
4.D	.	4.D	8r	8ff#L
.	.	.	8ddL	8gg
.	.	.	8cc#J	8aaJ
=	=	=	=	=
4.GG	.	4.GG	8bL	4gg
.	.	.	8cc#	.
.	.	.	8ddJ	8ff#
4.AA	5 4	4.AA	4dd	4.ee
.	3	.	8cc#	.
=	=	=	=	=
4.D	.	4.D	4.dd	4.d
4.C#	6	4.r	4.r	4.e
=	=	=	=	=
4.D	.	4.D	4.d	8f#L
.	.	.	.	8e
.	.	.	.	8dJ
4.AA	.	4.AA	4.e	4.c#
=	=	=	=	=
4.D	.	4.D	8f#L	4.d
.	.	.	8e	.
.	.	.	8dJ	.
4.AA#X	6	4.AA#X	4.c#	4.r
=	=	=	=	=
4.BB	.	4.BB	4.d	4.b
4.AA#X	6	4.r	4.r	4.cc#
=	=	=	=	=
4.BB	.	2.r	4.b	8ddL
.	.	.	.	8cc#
.	.	.	.	8bJ
4.FF#	#	.	4.cc#	4.a#X
=	=	=	=	=
4.BB	.	4.BB	8ddL	4.b
.	.	.	8cc#	.
.	.	.	8bJ	.
4.C#	#6\	4.C#	4.a#X	4.ee
=	=	=	=	=
8DL	6	8DL	4.b	4.dd
8C#	.	8C#	.	.
8BBJ	.	8BBJ	.	.
4.AA#X	6	4.AA#X	4.cc#	4.cc#
=	=	=	=	=
4.BB	.	4.BB	4.dd	2.b
4.G	6	4.G	4.ee	.
=	=	=	=	=
4.F#	#	4.F#	4.ff#	4.a#X
4.r;	.	4.r;	4.r;	4.r;
=	=	=	=	=
4.F#	-	2.r	2.r	4.ff#
4.E#X	6 #	.	.	4.gg#X
=	=	=	=	=
4.F#	.	2.r	4.ff#	8aaL
.	.	.	.	8gg#X
.	.	.	.	8ff#J
4.C#	#	.	4.gg#X	4.ee#X
=	=	=	=	=
4.F#	.	4.F#	8aaL	4.ff#
.	.	.	8gg#X	.
.	.	.	8ff#J	.
4.G#X	#6\	4.G#X	4.ee#X	4.bb
=	=	=	=	=
8AL	6	8AL	4.ff#	4.aa
8G#X	.	8G#X	.	.
8F#J	.	8F#J	.	.
4.E#X	6 #	4.E#X	[4.cc#	4.gg#X
=	=	=	=	=
4.F#	5	4.F#	4.cc#]	2.ff#
4.D	6	4.D	4.b	.
=	=	=	=	=
4.C#	#	4.C#	4.cc#	4.ee#X
4.AA	6	4.AA	4.r	[4.cc#
=	=	=	=	=
4.D	7	4.D	2.f#	4.cc#]
4.GG#X	7	4.GG#X	.	[4.b
=	=	=	=	=
4.C#	7 #	4.C#	4.e#X	4.b]
4.FF#	.	4.FF#	[4.f#	4.a
=	=	=	=	=
2.C#	#5\ 4	2.C#	4.f#]	2.g#X
.	#	.	4.e#X	.
=	=	=	=	=
2.F#	n	2.F#	4.f#	8ff#L
.	.	.	.	8cc#
.	.	.	.	8aJ
.	.	.	4.r	8f#L
.	.	.	.	8ff#
.	.	.	.	8cc#J
=	=	=	=	=
2.BB	n	2.BB	8bbL	4.dd
.	.	.	8ff#	.
.	.	.	8ddJ	.
.	#	.	8bL	4.dd#X
.	.	.	8bb	.
.	.	.	8ff#J	.
=	=	=	=	=
2.E	n	2.E	4.gg	8eeL
.	.	.	.	8b
.	.	.	.	8gJ
.	#	.	4.gg#X	8eL
.	.	.	.	8ee
.	.	.	.	8bJ
=	=	=	=	=
2.AA	.	2.AA	8aaL	4.cc#
.	.	.	8ee	.
.	.	.	8cc#J	.
.	.	.	8aL	4.r
.	.	.	8aa	.
.	.	.	8eeJ	.
=	=	=	=	=
2.D	.	2.D	4.ff#	8dddL
.	.	.	.	8aa
.	.	.	.	8ff#J
.	.	.	4.aa	8ddL
.	.	.	.	8ddd
.	.	.	.	8aaJ
=	=	=	=	=
4.G	.	4.G	4.gg	4.bb
4.D	.	4.D	4.ff#	4.aa
=	=	=	=	=
4.G	.	4.G	8bL	4gg
.	.	.	8cc#	.
.	.	.	8ddJ	8ff#
4.A	5 4	4.A	4dd	4.ee
.	3	.	8cc#	.
=	=	=	=	=
4.D	.	4.D	4.dd	4.dd
4.D	.	4.D	4.f#	4.a
=	=	=	=	=
4.GG	.	4.GG	8BL	4g
.	.	.	8c#	.
.	.	.	8dJ	8f#
4.AA	5 4	4.AA	4d	4.e
.	3	.	8c#	.
=	=	=	=	=
4.D	.	4.D	4.d	4.d
4.r;	.	4.r;	4.r;	4.r;
=	=	=	=	=
4.B	.	4.B	2.r	4.b
4.A#X	6	4.A#X	.	4.cc#
=	=	=	=	=
4.B	.	4.B	4.b	(8ddL
.	.	.	.	8cc#)
.	.	.	.	8bJ
4.F#	#	4.F#	4.cc#	4.a#X
=	=	=	=	=
4.BB	5	4.BB	(8ddL	4.b
.	.	.	8cc#)	.
.	.	.	8bJ	.
4.C#	#6\	4.C#	4.a#X	4.ee
=	=	=	=	=
8DL	6	8DL	4.b	4.dd
8C#	.	8C#	.	.
8BBJ	.	8BBJ	.	.
4.AA#X	6	4.AA#X	4.cc#	4.cc#
=	=	=	=	=
4.BB	.	4.BB	(8ddL	4.b
.	.	.	8cc#)	.
.	.	.	8bJ	.
4.E	.	4.E	8r	[4.gg
.	.	.	8eeL	.
.	.	.	8ddJ	.
=	=	=	=	=
4.AA	7	4.AA	(8cc#L	4.gg]
.	.	.	8b)	.
.	.	.	8aJ	.
4.D	7	4.D	8r	[4.ff#
.	.	.	8ddL	.
.	.	.	8cc#J	.
=	=	=	=	=
4.GG	7	4.GG	(8bL	4.ff#]
.	.	.	8a)	.
.	.	.	8gJ	.
4.C#	7	4.C#	8r	[4.ee
.	.	.	8cc#L	.
.	.	.	8bJ	.
=	=	=	=	=
4.F#	7 #	4.F#	(8a#XL	4.ee]
.	.	.	8g#X)	.
.	.	.	8f#J	.
4.r	.	4.r	4.b	4.dd
=	=	=	=	=
4.FF#	#	4.FF#	4.cc#	4.a#X
4.r	.	4.r	4.dd	4.b
=	=	=	=	=
4.F#	#	4.F#	4.a#X	4.cc#
4.r	.	4.r	4.b	(8ddL
.	.	.	.	8cc#)
.	.	.	.	8bJ
=	=	=	=	=
4.FF#	#	4.FF#	4.cc#	4.a#X
4.r	.	4.r	(8ddL	4.b
.	.	.	8cc#)	.
.	.	.	8bJ	.
=	=	=	=	=
4.F#	#	4.F#	4.a#X	4.cc#
4.E#X	7 5	4.E#X	[4.b	4.dd
=	=	=	=	=
4.F#	5 4	4.F#	4.b]	2.cc#
4.FF#	#	4.FF#	4.a#X	.
=	=	=	=	=
2.BB	.	2.BB	2.b	2.b
=:|!	=:|!	=:|!	=:|!	=:|!
*-	*-	*-	*-	*-
!!!system-decoration: [{s1,s2},s3,s4]
!!!YEM: CC BY-NC-SA 4.0; CCARH; DCML